!!!OTL: 27. Skotshne
!!!Genre:	Skotshne
!!!Mode:	Freygish
!!!Listening/dance:	listening
!!!:	*B-:
!!!One_Mode:	no
!!!Orig_tonic: unknown
**kern
*thru
*I"P1
*clefG2
*k[b-e-a-]
*>A
*B-:
!LO:TX:a:i:t=Bb-major
=22
4.b-X
16ccLL
16ddJJ
=23
4.b-X
16ccLL
16ddJJ
=24
8b-XL
16ccL
16ddJJ
8b-L
16ccL
16ddJJ
=25
[4b-X
(16b-LL]
16an)
(16a
16gJJ)
!!!End-Modulation
!!!Begin-Modulation
*B-:
!LO:TX:a:i:t=Bb-major
=30
4.b-X
16ccLL
16ddJJ
=31
4.b-X
16ccLL
16ddJJ
=32
8b-XL
16ccL
16ddJJ
8b-L
16ccL
16ddJJ
=33
8b-X
8r
*>D
!!!End-Modulation
*-
